X: 702
T: On the river bank
C: anon.
O: Ireland
B: Francis O'Neill: "The Dance Music of Ireland" (1907) no. 702
R: Reel
Z: Transcribed by Frank Nordberg - http://www.musicaviva.com
F: http://www.musicaviva.com/abc/tunes/ireland/oneill-1001/oneill-1001-070
2.abc
M: C|
L: 1/8
K: G
d^cAF G2 (GF)|DEFG ABcA|d^cAF GBAF|DEFG ABcA|d^cAF G2 (GF)|DEFG ABcA|d^cA
F GBAF|DFAc BG G2||
K: D
Addc d2cd|edcd efge|fgef d2 (dc)|AGFG ABcB|Addc d2(cd)|edcd efge|faef d2(
dc)|Aceg fdd2|]
W:
W:
W: From Musica Viva - http://www.musicaviva.com
W: the Internet center for free sheet music downloads.


